X:2810
T:Polonäs
T:ur Johan Erik Carlssons notbok (nr 36)
B:Johan Erik Carlssons notbok, nr 36
B:http://www.smus.se/earkiv/fmk/browselarge.php?lang=sw&katalogid=MMD+67&bildnr=00021
O:Snavlunda, Närke / Bona, Östergötland
R:Slängpolska
Z:Nils Liberg
M:3/4
L:1/16
K:Am
e2>c2 A2Ac B2Bd | c2ce d2df f2e2 | e2>c2 A2Ac B2Bd | cBA^G A4 A,4 ::
ABcd e2ef g2a2 | f2>d2 e2e2 e4 | ABcd e2ef g2a2 | f2>d2 e2e2 e4 |
e2>c2 A2Ac B2Bd | c2ce d2df f2e2 | e2>c2 A2Ac B2Bd | cBA^G A4 A,4 :|
(:musicend:)
(:music:)
